X:9002
T:Iron Legs
T:Iron League
R:Waltz
C:Trad.
N:Also as Hornpipe
O:England
M:3/4
L:1/8
Q:1/4=120
K:G
dc|"G"B3 c dB|"D7"A4 dc|"G"B3 c "D7"AB|"G"G2 B2 d2|"C"e4 f2|g4 ag|"D7"f3 g ef|d4 dc|
"G"B3 c dB|"D7"A4 dc|"G"B3 c "D7"AB|"G"G2 B2 d2|"C"e4 g2|"D7"b3 a gf|"G"g3 a gf|g4:|
|:ga|"G"b3 c' bc'|"D7"a3 b ab|"Em"g3 a ga|"Bm7"f3 g fg|"C"e3 f ef|"G"d3 e de|"D7"c3 B cd|"G"B4 d2|
"C"e3 f ef|"G"d4 d2|"D7"c3 B cd|"G"B4 d2|"C"e4 g2|"D7"b3 a gf|"G"g3 a gf|"G"g4:|
% --------------------------------- I ---------------------------------------

